src/travel-places/transport-water/26F4.svg

<svg id="emoji" viewBox="0 0 72 72" xmlns="http://www.w3.org/2000/svg">
  <g id="grid">
    <path fill="#b2b2b2" d="M68,4V68H4V4H68m4-4H0V72H72V0Z"/>
    <path fill="none" stroke="#00a4ff" stroke-miterlimit="10" stroke-width="0.1" d="m12.923 10.958h46.154a1.9231 1.9231 0 0 1 1.9231 1.9231v46.154a1.9231 1.9231 0 0 1-1.9231 1.9231h-46.154a1.9231 1.9231 0 0 1-1.9231-1.9231v-46.154a1.923 1.923 0 0 1 1.923-1.923z"/>
    <rect x="16" y="4" rx="2.2537" width="40" height="64" fill="none" stroke="#00a4ff" stroke-miterlimit="10" stroke-width="0.1"/>
    <rect x="16" y="4" rx="2.2537" width="40" height="64" transform="translate(72) rotate(90)" fill="none" stroke="#00a4ff" stroke-miterlimit="10" stroke-width="0.1"/>
    <circle cx="36" cy="36" r="29" fill="none" stroke="#00a4ff" stroke-miterlimit="10" stroke-width="0.1"/>
  </g>
  <g id="color">
    <path fill="#92d3f5" d="M39.5247,59.5143a16.3123,16.3123,0,0,0,3.7228-.2481,1.5488,1.5488,0,0,0,1.5-1.5,1.5292,1.5292,0,0,0-1.5-1.5,7.3831,7.3831,0,0,0-4.1107.9318c-1.6938.9277-.1817,3.5192,1.5142,2.59a4.5086,4.5086,0,0,1,2.5965-.5222v-3a16.3123,16.3123,0,0,1-3.7228.2481,1.51,1.51,0,0,0-1.5,1.5,1.5335,1.5335,0,0,0,1.5,1.5Z"/>
    <path fill="#92d3f5" stroke="#92d3f5" stroke-linecap="round" stroke-linejoin="round" stroke-width="2" d="M66.0159,55.0026s-8.541,2.02-11.44,1.9974c-2.6647-.02-7.8234-1.918-10.4871-1.9974S36.2642,56.9,33.6012,57c-2.71.1016-7.9688-1.9076-10.68-1.9974C20.3055,54.916,15.2444,56.9883,12.627,57,10.6616,57.0088,5,55.0026,5,55.0026V68l62-.5V55Z"/>
    <path fill="#3f3f3f" stroke="#3f3f3f" stroke-miterlimit="10" d="m67.5 43.5v24l-22.187-0.1858s-3.7584-19.794-11.813-22.814c-8-3 20 2 34-1z"/>
    <line x1="33" x2="68" y1="42" y2="42" fill="none" stroke="#d22f27" stroke-miterlimit="10" stroke-width="3"/>
    <rect x="53.5" y="19.5" width="3" height="5" fill="#3f3f3f" stroke="#3f3f3f" stroke-miterlimit="10" stroke-width="2"/>
    <rect x="62" y="19" width="3" height="5" fill="#3f3f3f" stroke="#3f3f3f" stroke-miterlimit="10"/>
  </g>
  <g id="line" fill="none" stroke="#000" stroke-linecap="round" stroke-linejoin="round">
    <path stroke-width="2.1521" d="M64.8,18v6.6H61.1V18Z"/>
    <path stroke-width="2" d="m56.8 18.9v5.7h-3.7v-5.7z"/>
    <line x1="47" x2="65.4" y1="36.241" y2="36.241" stroke-width="2.9042"/>
    <path stroke-width="2" d="M32,44.4s10.4,6.8,12.7,22.2a1.0767,1.0767,0,0,0,1,.8H67"/>
    <path stroke-width="2" d="M67,40.6H33l-1,3.3H67"/>
    <path stroke-width="2" d="M65.6028,40.6l-18.4823-.0919a1.4694,1.4694,0,0,1-.9642-.2726l-7.1359-7.33,27.9993.1393"/>
    <line x1="46" x2="64.4" y1="28.662" y2="28.662" stroke-width="3"/>
    <polyline stroke-width="2" points="67 33 42 33 42 25 67 25"/>
    <path fill="none" stroke="#000" stroke-linecap="round" stroke-linejoin="round" stroke-miterlimit="10" stroke-width="2" d="m5 55.003c1.5483 0.386 4.9902 0.94992 6.9719 0.94992 1.9817 0 5.8272-2.0724 10.331-2.2042s7.0209 2.1243 10.207 2.4509c3.1857 0.32664 5.6912-1.2372 7.6966-1.2372"/>
  </g>
</svg>

<svg id="emoji" viewBox="0 0 72 72" xmlns="http://www.w3.org/2000/svg">
  <g id="grid">
    <path fill="#b2b2b2" d="M68,4V68H4V4H68m4-4H0V72H72V0Z"/>
    <path fill="none" stroke="#00a4ff" stroke-miterlimit="10" stroke-width="0.1" d="M12.923,10.9583H59.0769A1.9231,1.9231,0,0,1,61,12.8814V59.0352a1.9231,1.9231,0,0,1-1.9231,1.9231H12.9231A1.9231,1.9231,0,0,1,11,59.0352V12.8813A1.923,1.923,0,0,1,12.923,10.9583Z"/>
    <rect x="16" y="4" rx="2.2537" width="40" height="64" fill="none" stroke="#00a4ff" stroke-miterlimit="10" stroke-width="0.1"/>
    <rect x="16" y="4" rx="2.2537" width="40" height="64" transform="translate(72) rotate(90)" fill="none" stroke="#00a4ff" stroke-miterlimit="10" stroke-width="0.1"/>
    <circle cx="36" cy="36" r="29" fill="none" stroke="#00a4ff" stroke-miterlimit="10" stroke-width="0.1"/>
  </g>
  <g id="color">
    <path fill="#92d3f5" d="M39.5247,59.5143a16.3123,16.3123,0,0,0,3.7228-.2481,1.5488,1.5488,0,0,0,1.5-1.5,1.5292,1.5292,0,0,0-1.5-1.5,7.3831,7.3831,0,0,0-4.1107.9318c-1.6938.9277-.1817,3.5192,1.5142,2.59a4.5086,4.5086,0,0,1,2.5965-.5222v-3a16.3123,16.3123,0,0,1-3.7228.2481,1.51,1.51,0,0,0-1.5,1.5,1.5335,1.5335,0,0,0,1.5,1.5Z"/>
    <path fill="#92d3f5" stroke="#92d3f5" stroke-linecap="round" stroke-linejoin="round" stroke-width="2" d="M66.0159,55.0026s-8.541,2.02-11.44,1.9974c-2.6647-.02-7.8234-1.918-10.4871-1.9974S36.2642,56.9,33.6012,57c-2.71.1016-7.9688-1.9076-10.68-1.9974C20.3055,54.916,15.2444,56.9883,12.627,57,10.6616,57.0088,5,55.0026,5,55.0026V68l62-.5V55Z"/>
    <path fill="#3f3f3f" stroke="#3f3f3f" stroke-miterlimit="10" d="M67.5,43.5v24l-22.187-.1858S41.5546,47.5205,33.5,44.5C25.5,41.5,53.5,46.5,67.5,43.5Z"/>
    <line x1="33" x2="68" y1="42" y2="42" fill="none" stroke="#d22f27" stroke-miterlimit="10" stroke-width="3"/>
    <rect x="53.5" y="19.5" width="3" height="5" fill="#3f3f3f" stroke="#3f3f3f" stroke-miterlimit="10" stroke-width="2"/>
    <rect x="62" y="19" width="3" height="5" fill="#3f3f3f" stroke="#3f3f3f" stroke-miterlimit="10"/>
  </g>
  <g id="line">
    <path fill="none" stroke="#000000" stroke-linecap="round" stroke-linejoin="round" stroke-width="2.1521" d="M64.8,18v6.6H61.1V18Z"/>
    <path fill="none" stroke="#000000" stroke-linecap="round" stroke-linejoin="round" stroke-width="2" d="M56.8,18.9v5.7H53.1V18.9Z"/>
    <line x1="47" x2="65.4" y1="36.2412" y2="36.2412" fill="none" stroke="#000000" stroke-linecap="round" stroke-linejoin="round" stroke-width="2.9042"/>
    <path fill="none" stroke="#000000" stroke-linecap="round" stroke-linejoin="round" stroke-width="2" d="M32,44.4s10.4,6.8,12.7,22.2a1.0767,1.0767,0,0,0,1,.8H67"/>
    <path fill="none" stroke="#000000" stroke-linecap="round" stroke-linejoin="round" stroke-width="2" d="M67,40.6H33l-1,3.3H67"/>
    <path fill="none" stroke="#000000" stroke-linecap="round" stroke-linejoin="round" stroke-width="2" d="M65.6028,40.6l-18.4823-.0919a1.4694,1.4694,0,0,1-.9642-.2726l-7.1359-7.33,27.9993.1393"/>
    <line x1="46" x2="64.4" y1="28.6624" y2="28.6624" fill="none" stroke="#000000" stroke-linecap="round" stroke-linejoin="round" stroke-width="3"/>
    <polyline fill="none" stroke="#000000" stroke-linecap="round" stroke-linejoin="round" stroke-width="2" points="67 33 42 33 42 25 67 25"/>
  </g>
</svg>
